img/keys_blue.svg

<svg width="34" height="24" viewBox="0 0 34 24" fill="none" xmlns="http://www.w3.org/2000/svg">
<path d="M26.5775 24C30.7277 24 34 20.9089 34 17.0484C34 14.1867 32.3905 11.6355 29.7434 10.5152C29.7567 4.40045 25.4202 0 19.8466 0C16.3083 0 13.6479 1.86277 11.9851 4.30596C8.60642 3.38808 5.05477 5.93926 4.92175 9.74578C1.87559 10.2992 0 13.0799 0 16.4544C0 20.5714 3.53834 24 8.19405 24H26.5775ZM9.53756 13.5928C9.53756 11.2981 11.3466 9.44882 13.5947 9.44882C15.284 9.44882 16.7739 10.4612 17.3858 12.0405H23.4515C23.6244 12.0405 23.7707 12.0945 23.9304 12.243L24.9679 13.3228C25.1009 13.4713 25.1275 13.7278 24.9546 13.9033L22.9992 15.8875C22.8263 16.0765 22.5736 16.063 22.4006 15.8875L21.2567 14.7267L19.6737 16.36C19.5141 16.5354 19.2613 16.5219 19.0751 16.333L17.5055 14.7672C16.7207 16.6569 15.2973 17.7233 13.5947 17.7233C11.3599 17.7233 9.53756 15.874 9.53756 13.5928ZM13.9937 13.5793C13.9937 12.8909 13.4484 12.3375 12.7567 12.3375C12.0782 12.3375 11.5196 12.8774 11.5196 13.5793C11.5196 14.2677 12.0782 14.8346 12.7567 14.8346C13.4484 14.8346 13.9937 14.2677 13.9937 13.5793Z" fill="url(#paint0_linear)"/>
<defs>
<linearGradient id="paint0_linear" x1="0" y1="0" x2="34" y2="24" gradientUnits="userSpaceOnUse">
<stop stop-color="#0AABFE"/>
<stop offset="1" stop-color="#3789F0"/>
</linearGradient>
</defs>
</svg>

<svg width="34" height="24" fill="none" xmlns="http://www.w3.org/2000/svg"><path d="M26.578 24C30.727 24 34 20.909 34 17.048c0-2.861-1.61-5.412-4.257-6.533C29.757 4.4 25.42 0 19.847 0c-3.539 0-6.2 1.863-7.862 4.306-3.379-.918-6.93 1.633-7.063 5.44C1.876 10.299 0 13.08 0 16.454 0 20.571 3.538 24 8.194 24h18.383zM9.538 13.593c0-2.295 1.809-4.144 4.057-4.144 1.689 0 3.179 1.012 3.79 2.591h6.066a.66.66 0 0 1 .48.203l1.037 1.08a.425.425 0 0 1-.013.58l-1.956 1.984c-.173.19-.425.176-.598 0l-1.144-1.16-1.583 1.633c-.16.175-.413.162-.599-.027l-1.57-1.566c-.784 1.89-2.208 2.956-3.91 2.956-2.235 0-4.057-1.849-4.057-4.13zm4.456-.014c0-.688-.546-1.242-1.237-1.242-.679 0-1.237.54-1.237 1.242 0 .689.558 1.256 1.237 1.256.691 0 1.237-.567 1.237-1.256z" fill="url(#a)"/><defs><linearGradient id="a" x1="0" y1="0" x2="34" y2="24" gradientUnits="userSpaceOnUse"><stop stop-color="#0AABFE"/><stop offset="1" stop-color="#3789F0"/></linearGradient></defs></svg>
